app/img/icomoon/whatsapp.svg

<svg width="24" height="25" viewBox="0 0 24 25" fill="none" xmlns="http://www.w3.org/2000/svg">
<path fill-rule="evenodd" clip-rule="evenodd" d="M20.5039 3.50391C18.2461 1.24609 15.2461 0 12.0508 0C5.46484 0 0.101563 5.35938 0.101563 11.9453C0.097656 14.0508 0.648438 16.1055 1.69531 17.918L0 24.1094L6.33594 22.4453C8.07812 23.3984 10.0469 23.8984 12.0469 23.9023H12.0508C18.6367 23.9023 23.9961 18.543 24 11.9531C24 8.76172 22.7578 5.76172 20.5039 3.50391ZM12.0508 21.8828H12.0469C10.2656 21.8828 8.51562 21.4023 6.99219 20.5L6.62891 20.2852L2.86719 21.2695L3.87109 17.6055L3.63672 17.2305C2.64063 15.6484 2.11719 13.8203 2.11719 11.9453C2.11719 6.47266 6.57422 2.01953 12.0547 2.01953C14.707 2.01953 17.1992 3.05469 19.0742 4.92969C20.9492 6.80859 21.9805 9.30078 21.9805 11.9531C21.9805 17.4297 17.5234 21.8828 12.0508 21.8828ZM17.4961 14.4453C17.1992 14.2969 15.7305 13.5742 15.457 13.4766C15.1836 13.375 14.9844 13.3281 14.7852 13.625C14.5859 13.9258 14.0156 14.5977 13.8398 14.7969C13.668 14.9922 13.4922 15.0195 13.1953 14.8711C12.8945 14.7227 11.9336 14.4062 10.793 13.3867C9.90625 12.5977 9.30469 11.6172 9.13281 11.3203C8.95703 11.0195 9.11328 10.8594 9.26172 10.7109C9.39844 10.5781 9.5625 10.3633 9.71094 10.1875C9.85938 10.0156 9.91016 9.89062 10.0117 9.69141C10.1094 9.49219 10.0586 9.31641 9.98438 9.16797C9.91016 9.01953 9.3125 7.54688 9.0625 6.94922C8.82031 6.36719 8.57422 6.44922 8.39062 6.4375C8.21875 6.42969 8.01953 6.42969 7.82031 6.42969C7.62109 6.42969 7.29688 6.50391 7.02344 6.80469C6.75 7.10156 5.98047 7.82422 5.98047 9.29297C5.98047 10.7617 7.05078 12.1836 7.19922 12.3828C7.34766 12.5781 9.30469 15.5938 12.3008 16.8867C13.0117 17.1953 13.5664 17.3789 14 17.5156C14.7148 17.7422 15.3672 17.7109 15.8828 17.6367C16.457 17.5508 17.6484 16.9141 17.8984 16.2148C18.1445 15.5195 18.1445 14.9219 18.0703 14.7969C17.9961 14.6719 17.7969 14.5977 17.4961 14.4453Z" fill="white"/>
</svg>

<svg width="24" height="25" fill="none" xmlns="http://www.w3.org/2000/svg"><path fill-rule="evenodd" clip-rule="evenodd" d="M20.504 3.504A11.875 11.875 0 0012.05 0C5.465 0 .1 5.36.1 11.945a11.882 11.882 0 001.594 5.973L0 24.109l6.336-1.664a11.958 11.958 0 005.71 1.457h.005c6.586 0 11.945-5.359 11.949-11.949 0-3.191-1.242-6.191-3.496-8.45zM12.05 21.883h-.004A9.931 9.931 0 016.992 20.5l-.363-.215-3.762.985 1.004-3.665-.234-.375a9.904 9.904 0 01-1.52-5.285c0-5.472 4.457-9.925 9.938-9.925a9.863 9.863 0 017.02 2.91 9.875 9.875 0 012.905 7.023c0 5.477-4.457 9.93-9.93 9.93zm5.445-7.438c-.297-.148-1.765-.87-2.039-.968-.273-.102-.473-.149-.672.148-.2.3-.77.973-.945 1.172-.172.195-.348.223-.645.074-.3-.148-1.261-.465-2.402-1.484-.887-.79-1.488-1.77-1.66-2.067-.176-.3-.02-.46.129-.61.136-.132.3-.347.449-.523.148-.171.2-.296.3-.496.098-.199.048-.375-.027-.523-.074-.148-.671-1.621-.921-2.219-.243-.582-.489-.5-.672-.511-.172-.008-.371-.008-.57-.008-.2 0-.524.074-.798.375-.273.297-1.043 1.02-1.043 2.488 0 1.469 1.07 2.89 1.22 3.09.148.195 2.105 3.21 5.1 4.504a16.85 16.85 0 001.7.629c.715.226 1.367.195 1.883.12.574-.085 1.765-.722 2.015-1.421.247-.695.247-1.293.172-1.418-.074-.125-.273-.2-.574-.352z" fill="#fff"/></svg>
